X: 8577
T: Croen A Ddafad Felan
R: polka
M: 2/4
K: Gmajor
G2 A2|B2 c2|d2 d2|c2 B2|c2 A2|d2 d2|
c2 B2|A2 A2|B2 A2|G2 G2|A2 G2|F2 G2|A2 A2||
G2 A2|B2 c2|d2 d2|c2 B2|c2 A2|d2 d2|
c2 B2|A2 A2|B2 A2|G2 G2|A2 A2|d2 d2|G2 G2|

